assets/images/arrow-black-right.svg

<svg height="12" viewBox="0 0 15 12" width="15" xmlns="http://www.w3.org/2000/svg"><path d="m142.424621 11.0606602h-10.424621v-2.12132037h10.424621l-3.43934-3.43933983 1.5-1.5 5.25 5.25.75.75-6 6-1.5-1.5z" fill="#121212" fill-rule="evenodd" transform="translate(-132 -4)"/></svg>

<?xml version="1.0" encoding="UTF-8"?>
<svg width="15px" height="12px" viewBox="0 0 15 12" version="1.1" xmlns="http://www.w3.org/2000/svg" xmlns:xlink="http://www.w3.org/1999/xlink">
    <!-- Generator: Sketch 46.1 (44463) - http://www.bohemiancoding.com/sketch -->
    <title>Combined Shape</title>
    <desc>Created with Sketch.</desc>
    <defs></defs>
    <g id="Page-1" stroke="none" stroke-width="1" fill="none" fill-rule="evenodd">
        <g id="Post-Desktop" transform="translate(-1295.000000, -2708.000000)" fill="#121212">
            <g id="Group-3" transform="translate(510.000000, 2243.000000)">
                <g id="Group-2" transform="translate(653.000000, 461.000000)">
                    <path d="M142.424621,11.0606602 L132,11.0606602 L132,8.93933983 L142.424621,8.93933983 L138.985281,5.5 L140.485281,4 L145.735281,9.25 L146.485281,10 L140.485281,16 L138.985281,14.5 L142.424621,11.0606602 Z" id="Combined-Shape"></path>
                </g>
            </g>
        </g>
    </g>
</svg>
